X: 5765
T: Cailleach An Dilisg
R: jig
M: 6/8
K: Adorian
ede cAA|cAA {d}A2 d|{g}ede cAA|BGG ~{A}G2 d|
{g}ede cAA|cd{g}e cAA|{g}ede cAA|1 BGF G2 d:|2 BGF GBd||
{g}efg efg|ded dBd|efg efg|dBd e2 d|
{g}efg efg|ded dBd|ede cAA|BGF G2 d|
{g}efg efg|ded dBd|efg efg|dBd (3ege d|
{g}efg efg|d{g}ed d (3Bcd|ede ~c3|BGF G3||

